usr/share/icons/biglinux-icons-material/22/actions/go-top.svg

<svg xmlns="http://www.w3.org/2000/svg" viewBox="0 0 22 22">
  <defs id="defs3051">
    <style type="text/css" id="current-color-scheme">
      .ColorScheme-Text {
        color:#363636;
      }
      </style>
  </defs>
 <path 
     style="fill:currentColor;fill-opacity:1;stroke:none" 
     d="M 3 5 L 3 6 L 19 6 L 19 5 L 3 5 z M 11 8.2929688 L 9.125 10.167969 L 3 16.292969 L 3.7070312 17 L 9.8320312 10.875 L 11 9.7070312 L 12.167969 10.875 L 18.292969 17 L 19 16.292969 L 12.875 10.167969 L 11 8.2929688 z "
     class="ColorScheme-Text"
     />
</svg>

<svg xmlns="http://www.w3.org/2000/svg" viewBox="0 0 22 22"><path d="M3 5v1h16V5H3zm8 3.293-1.875 1.875L3 16.293l.707.707 6.125-6.125L11 9.707l1.168 1.168L18.293 17l.707-.707-6.125-6.125L11 8.293z" style="fill:currentColor;fill-opacity:1;stroke:none;color:#dedede"/></svg>
